src/assets/duotone/ArrangeSquare.svg

<svg width="24" height="24" viewBox="0 0 24 24"  xmlns="http://www.w3.org/2000/svg">
<path opacity="0.4" d="M16.19 2H7.81C4.17 2 2 4.17 2 7.81V16.18C2 19.83 4.17 22 7.81 22H16.18C19.82 22 21.99 19.83 21.99 16.19V7.81C22 4.17 19.83 2 16.19 2Z" />
<path d="M17.8501 13.5301C17.7701 13.3501 17.6301 13.2001 17.4401 13.1201C17.3501 13.0801 17.2501 13.0601 17.1501 13.0601H6.8501C6.4401 13.0601 6.1001 13.4001 6.1001 13.8101C6.1001 14.2201 6.4401 14.5601 6.8501 14.5601H15.3501L13.5901 16.3201C13.3001 16.6101 13.3001 17.0901 13.5901 17.3801C13.7401 17.5301 13.9301 17.6001 14.1201 17.6001C14.3101 17.6001 14.5001 17.5301 14.6501 17.3801L17.6901 14.3401C17.7601 14.2701 17.8101 14.1901 17.8501 14.1001C17.9201 13.9201 17.9201 13.7101 17.8501 13.5301Z" />
<path d="M6.15016 10.4701C6.23016 10.6501 6.37016 10.8001 6.56016 10.8801C6.65016 10.9201 6.75016 10.9401 6.85016 10.9401H17.1602C17.5702 10.9401 17.9102 10.6001 17.9102 10.1901C17.9102 9.78009 17.5702 9.44009 17.1602 9.44009H8.66016L10.4202 7.68009C10.7102 7.39009 10.7102 6.91009 10.4202 6.62009C10.1302 6.33009 9.65016 6.33009 9.36016 6.62009L6.32016 9.65009C6.25016 9.72009 6.19016 9.81009 6.15016 9.90009C6.08016 10.0801 6.08016 10.2901 6.15016 10.4701Z" />
</svg>

<?xml version="1.0" encoding="UTF-8"?>
<svg width="24" height="24" viewBox="0 0 24 24" xmlns="http://www.w3.org/2000/svg">
 <path d="M16.19 2H7.81C4.17 2 2 4.17 2 7.81V16.18C2 19.83 4.17 22 7.81 22H16.18C19.82 22 21.99 19.83 21.99 16.19V7.81C22 4.17 19.83 2 16.19 2Z" opacity=".4"/>
 <path d="m17.85 13.53c-0.08-0.18-0.22-0.33-0.41-0.41-0.09-0.04-0.19-0.06-0.29-0.06h-10.3c-0.41 0-0.75 0.34-0.75 0.75s0.34 0.75 0.75 0.75h8.5l-1.76 1.76c-0.29 0.29-0.29 0.77 0 1.06 0.15 0.15 0.34 0.22 0.53 0.22s0.38-0.07 0.53-0.22l3.04-3.04c0.07-0.07 0.12-0.15 0.16-0.24 0.07-0.18 0.07-0.39 0-0.57z"/>
 <path d="m6.1502 10.47c0.08 0.18 0.22 0.33 0.41 0.41 0.09 0.04 0.19 0.06 0.29 0.06h10.31c0.41 0 0.75-0.34 0.75-0.75 0-0.41001-0.34-0.75001-0.75-0.75001h-8.5l1.76-1.76c0.29-0.29 0.29-0.77 0-1.06s-0.77004-0.29-1.06 0l-3.04 3.03c-0.07 0.07-0.13 0.16-0.17 0.25-0.07 0.18001-0.07 0.39001 0 0.57001z"/>
</svg>
